src/assets/images/brands/akbars.svg

<svg width="208" height="208" viewBox="0 0 208 208" fill="none" xmlns="http://www.w3.org/2000/svg">
<g filter="url(#filter0_d)">
<g clip-path="url(#clip0)">
<path d="M57.0355 72.5301C57.0355 72.3473 56.9746 72.1645 56.9137 71.8597L53.0761 61.3769C52.5888 60.097 51.9188 59.5485 50.8832 59.5485C49.7868 59.5485 49.1167 60.097 48.6903 61.3769L44.7919 71.8597C44.67 72.2254 44.6091 72.4082 44.6091 72.5301C44.6091 73.0787 45.0355 73.5053 45.6447 73.5053C46.132 73.5053 46.4975 73.2615 46.7411 72.652L48.0203 69.0562H53.7462L55.0254 72.652C55.2081 73.2615 55.5736 73.5053 56.0609 73.5053C56.6091 73.5662 57.0355 73.0787 57.0355 72.5301ZM48.6294 67.2278L50.5178 61.8035C50.5787 61.6207 50.6396 61.5597 50.8223 61.5597C50.9442 61.5597 51.0051 61.6207 51.066 61.8035L52.9543 67.2278H48.6294ZM74.5178 73.4443H78.6599C81.3401 73.4443 82.9848 71.8597 82.9848 69.1171C82.9848 66.4964 81.401 65.0337 78.6599 65.0337H75.0051V61.6816H81.0964C81.7665 61.6816 82.1929 61.3159 82.1929 60.6455C82.1929 60.036 81.7665 59.6704 81.0964 59.6704H74.4568C73.4213 59.6704 72.8122 60.2189 72.8122 61.3159V71.7988C72.934 72.8958 73.4822 73.4443 74.5178 73.4443ZM75.066 66.923H78.4772C80.0609 66.923 80.7919 67.7763 80.7919 69.1781C80.7919 70.6408 80.0609 71.494 78.4772 71.494H75.066V66.923ZM51.1269 85.9994H47.0457V81.7331H53.8071C54.2335 81.7331 54.599 81.4893 54.599 81.0627C54.599 80.6361 54.2944 80.3923 53.8071 80.3923H46.8629C46.0711 80.3923 45.6447 80.8189 45.6447 81.6112V93.0083C45.6447 93.8006 46.0711 94.2272 46.8629 94.2272H51.1269C53.7462 94.2272 55.269 92.7036 55.269 90.0828C55.269 87.4621 53.7462 85.9994 51.1269 85.9994ZM50.9442 92.8254H47.0457V87.2793H50.9442C52.9543 87.2793 53.8071 88.2544 53.8071 90.0219C53.8071 91.7893 53.0152 92.8254 50.9442 92.8254ZM60.9949 83.6834C59.7766 83.6834 58.6193 83.9882 58.0101 84.2929C57.5838 84.4757 57.401 84.6586 57.401 85.0242C57.401 85.3899 57.7056 85.6337 58.0101 85.6337C58.1929 85.6337 58.3756 85.5728 58.5584 85.4509C59.0457 85.268 59.9594 84.9633 60.8731 84.9633C62.6396 84.9633 63.4924 85.6947 63.4924 87.2793V88.2544C62.3959 87.9497 61.6041 87.8278 60.6294 87.8278C58.0101 87.8278 56.731 89.3515 56.731 90.997C56.731 93.0083 58.2538 94.2882 60.5685 94.2882C62.5178 94.2882 64.0406 93.6178 64.5888 93.1911C64.8325 93.0083 64.8934 92.8864 64.8934 92.5817V87.2183C64.8325 84.8414 63.3706 83.6834 60.9949 83.6834ZM63.4315 92.3379C62.6396 92.7645 61.6041 93.0692 60.6903 93.0692C58.9848 93.0692 58.0101 92.3379 58.0101 91.058C58.0101 89.9 58.8629 89.1077 60.6903 89.1077C61.6041 89.1077 62.3959 89.2296 63.4315 89.5343V92.3379ZM99.736 62.9615C97.9086 62.9615 96.4467 63.6319 95.8985 63.9366C95.4112 64.2414 95.3502 64.4242 95.3502 65.2165V75.8213C95.3502 76.4917 95.7766 76.9183 96.3858 76.9183C96.9949 76.9183 97.4213 76.4917 97.4213 75.8213V73.0787C98.0304 73.3834 99.0051 73.6272 99.9188 73.6272C102.355 73.6272 104 72.0426 104.183 69.7266C104.244 68.9343 104.244 67.6544 104.183 66.8621C104 64.5461 102.355 62.9615 99.736 62.9615ZM102.112 69.4219C101.99 70.7627 101.137 71.6159 99.6751 71.6159C98.8832 71.6159 97.9086 71.3722 97.4213 71.0065V65.5213C97.9086 65.1556 98.8832 64.9118 99.6751 64.9118C101.198 64.9118 101.99 65.826 102.112 67.1059C102.173 67.8372 102.173 68.6905 102.112 69.4219ZM67.0863 71.7378L63.4924 68.142L66.9035 64.7289C67.1472 64.4852 67.3299 64.1804 67.3299 63.8757C67.3299 63.3881 66.9645 63.0224 66.4162 63.0224C66.1117 63.0224 65.868 63.1443 65.6244 63.4491L62.0914 66.923C61.9086 67.1059 61.7259 67.2278 61.4213 67.2278H60.6903V64.1804C60.6903 63.51 60.264 63.0834 59.6548 63.0834C59.0457 63.0834 58.6193 63.51 58.6193 64.1804V72.4082C58.6193 73.0787 59.0457 73.5053 59.6548 73.5053C60.264 73.5053 60.6903 73.0787 60.6903 72.4082V69.1171H61.2995C61.5431 69.1171 61.7868 69.239 61.9695 69.4219L65.6853 73.1396C65.9898 73.4443 66.2335 73.5662 66.5381 73.5662C67.0863 73.5662 67.4518 73.2006 67.4518 72.652C67.4518 72.2864 67.3299 72.0426 67.0863 71.7378ZM113.868 69.6656C113.381 69.6656 113.137 69.9704 112.954 70.2751C112.589 71.0674 111.858 71.6159 110.761 71.6159C109.299 71.6159 108.386 70.7017 108.264 69.4219C108.203 68.6905 108.203 67.8982 108.264 67.1668C108.386 65.826 109.239 64.9727 110.761 64.9727C111.797 64.9727 112.589 65.5213 112.954 66.3136C113.137 66.6183 113.381 66.923 113.868 66.923C114.477 66.923 114.904 66.5574 114.904 65.9479C114.904 65.6431 114.782 65.3384 114.599 64.9727C113.99 63.8147 112.65 62.9615 110.761 62.9615C108.203 62.9615 106.497 64.6071 106.254 66.923C106.193 67.7153 106.193 68.9952 106.254 69.7266C106.497 72.0426 108.203 73.6881 110.761 73.6881C112.65 73.6881 113.99 72.7739 114.599 71.6159C114.782 71.2503 114.904 70.9455 114.904 70.6408C114.843 70.0313 114.477 69.6656 113.868 69.6656ZM88.7107 62.9615C87.5533 62.9615 86.5178 63.2662 85.8477 63.51C85.2995 63.7538 85.0558 64.0585 85.0558 64.4852C85.0558 64.9727 85.4213 65.3994 85.9086 65.3994C86.1523 65.3994 86.3959 65.2775 86.7005 65.2165C87.1269 65.0337 87.8579 64.8508 88.5888 64.8508C90.1726 64.8508 90.8426 65.4603 90.8426 66.6792V67.5325C89.9289 67.2887 89.137 67.1668 88.2843 67.1668C85.665 67.1668 84.3858 68.6905 84.3858 70.2751C84.3858 72.1645 85.8477 73.6272 88.3452 73.6272C90.2944 73.6272 91.8173 72.9568 92.4264 72.5301C92.731 72.3473 92.7919 72.1645 92.7919 71.7378V66.6792C92.8528 64.1195 91.3299 62.9615 88.7107 62.9615ZM90.8426 71.3112C90.2335 71.6159 89.3807 71.8597 88.5888 71.8597C87.2487 71.8597 86.3959 71.2503 86.3959 70.2751C86.3959 69.3609 87.1269 68.6295 88.5888 68.6295C89.3807 68.6295 90.0508 68.7514 90.9035 68.9952V71.3112H90.8426ZM82.1929 88.9248L86.1523 84.9633C86.335 84.7805 86.3959 84.5976 86.3959 84.4148C86.3959 84.11 86.1523 83.8053 85.7868 83.8053C85.6041 83.8053 85.4213 83.8663 85.2386 84.0491L81.3401 87.9497C81.0964 88.1935 80.9137 88.3154 80.6091 88.3154H79.9391V84.5976C79.9391 84.11 79.6954 83.8663 79.269 83.8663C78.8426 83.8663 78.599 84.11 78.599 84.5976V93.6178C78.599 94.1053 78.8426 94.3491 79.269 94.3491C79.6954 94.3491 79.9391 94.1053 79.9391 93.6178V89.5953H80.67C80.9746 89.5953 81.2183 89.7172 81.401 89.9609L85.5431 94.1053C85.7259 94.2882 85.9086 94.3491 86.0914 94.3491C86.4568 94.3491 86.7005 94.0444 86.7005 93.7396C86.7005 93.4959 86.6396 93.374 86.3959 93.1302L82.1929 88.9248ZM75.1269 83.7444C74.7005 83.7444 74.4568 83.9882 74.4568 84.4757V88.1935H68.731V84.4757C68.731 83.9882 68.4873 83.7444 68.0609 83.7444C67.6345 83.7444 67.3909 83.9882 67.3909 84.4757V93.4959C67.3909 93.9834 67.6345 94.2272 68.0609 94.2272C68.4873 94.2272 68.731 93.9834 68.731 93.4959V89.4734H74.4568V93.4959C74.4568 93.9834 74.7005 94.2272 75.1269 94.2272C75.5533 94.2272 75.7969 93.9834 75.7969 93.4959V84.4757C75.7969 84.0491 75.5533 83.7444 75.1269 83.7444Z" fill="#212121"/>
<path d="M114.782 121.775L105.462 123.482C103.939 123.786 102.904 125.249 103.147 126.773C103.452 128.297 104.914 129.333 106.437 129.089L115.756 127.382C117.949 126.956 119.35 128.297 119.898 129.698C120.447 131.1 120.325 132.989 118.437 134.208L104.792 143.107C103.513 143.96 101.99 143.96 100.65 143.289C99.3097 142.558 98.5178 141.217 98.5178 139.694V117.814C98.5178 114.157 96.6295 110.988 93.401 109.22C90.2335 107.453 86.4569 107.636 83.4112 109.586L48.934 131.953C45.0356 134.452 43.5736 139.023 45.2792 143.35C46.9848 147.678 51.1878 149.994 55.7564 149.201L85.8477 143.777C87.3706 143.472 88.4061 142.01 88.1625 140.486C87.8579 138.962 86.396 137.926 84.8731 138.17L54.7817 143.594C52.5279 144.021 51.1878 142.68 50.6396 141.278C50.0914 139.876 50.2132 137.987 52.1015 136.768L86.5787 114.401C87.8579 113.547 89.3807 113.547 90.7208 114.218C92.0609 114.949 92.8528 116.29 92.8528 117.814V139.694C92.8528 143.35 94.7411 146.52 97.9696 148.287C99.4315 149.079 101.076 149.506 102.66 149.506C104.487 149.506 106.315 148.958 107.959 147.921L121.665 139.023C125.563 136.524 127.025 131.953 125.32 127.626C123.553 123.299 119.35 120.922 114.782 121.775ZM163.025 127.565C161.32 123.238 157.117 120.922 152.548 121.714L143.228 123.421C141.706 123.726 140.67 125.188 140.914 126.712C141.218 128.236 142.68 129.272 144.203 129.028L153.523 127.321C155.716 126.895 157.117 128.236 157.665 129.637C158.213 131.039 158.091 132.928 156.203 134.147L142.558 143.107C141.279 143.96 139.756 143.96 138.416 143.289C137.076 142.558 136.284 141.217 136.284 139.694V110.866C136.284 109.281 135.005 108.001 133.421 108.001C131.838 108.001 130.558 109.281 130.558 110.866V139.694C130.558 143.35 132.447 146.52 135.675 148.287C137.137 149.079 138.782 149.506 140.365 149.506C142.193 149.506 144.02 148.958 145.665 147.921L159.371 139.023C163.269 136.463 164.731 131.892 163.025 127.565Z" fill="#009B3A"/>
</g>
</g>
<defs>
<filter id="filter0_d" x="-4" y="0" width="216" height="216" filterUnits="userSpaceOnUse" color-interpolation-filters="sRGB">
<feFlood flood-opacity="0" result="BackgroundImageFix"/>
<feColorMatrix in="SourceAlpha" type="matrix" values="0 0 0 0 0 0 0 0 0 0 0 0 0 0 0 0 0 0 127 0"/>
<feOffset dy="4"/>
<feGaussianBlur stdDeviation="2"/>
<feColorMatrix type="matrix" values="0 0 0 0 0 0 0 0 0 0 0 0 0 0 0 0 0 0 0.25 0"/>
<feBlend mode="normal" in2="BackgroundImageFix" result="effect1_dropShadow"/>
<feBlend mode="normal" in="SourceGraphic" in2="effect1_dropShadow" result="shape"/>
</filter>
<clipPath id="clip0">
<rect width="120" height="90.8108" fill="white" transform="translate(44 59)"/>
</clipPath>
</defs>
</svg>

<svg xmlns="http://www.w3.org/2000/svg" width="208" height="208" fill="none" viewBox="0 0 208 208"><g filter="url(#filter0_d)"><g clip-path="url(#clip0)"><path fill="#212121" d="M57.035 72.53c0-.183-.06-.365-.121-.67l-3.838-10.483c-.487-1.28-1.157-1.829-2.193-1.829-1.096 0-1.766.549-2.193 1.829L44.792 71.86c-.122.365-.183.548-.183.67 0 .549.426.975 1.036.975.487 0 .852-.243 1.096-.853l1.28-3.596h5.725l1.28 3.596c.182.61.548.853 1.035.853.548.061.974-.426.974-.975zm-8.406-5.302l1.889-5.424c.06-.183.122-.244.304-.244.122 0 .183.06.244.243l1.888 5.425H48.63zm25.889 6.216h4.142c2.68 0 4.325-1.584 4.325-4.327 0-2.62-1.584-4.083-4.325-4.083h-3.655v-3.352h6.091c.67 0 1.097-.366 1.097-1.037 0-.609-.427-.975-1.097-.975h-6.64c-1.035 0-1.644.549-1.644 1.646v10.483c.122 1.097.67 1.645 1.706 1.645zm.548-6.521h3.411c1.584 0 2.315.853 2.315 2.255 0 1.463-.731 2.316-2.315 2.316h-3.411v-4.571zm-23.94 19.076h-4.08v-4.266h6.761c.426 0 .792-.244.792-.67 0-.427-.305-.67-.792-.67h-6.944c-.792 0-1.218.426-1.218 1.218v11.397c0 .793.426 1.22 1.218 1.22h4.264c2.62 0 4.142-1.524 4.142-4.145 0-2.62-1.523-4.084-4.142-4.084zm-.182 6.826h-3.898V87.28h3.898c2.01 0 2.863.975 2.863 2.743 0 1.767-.792 2.803-2.863 2.803zm10.05-9.142c-1.217 0-2.375.305-2.984.61-.426.183-.609.366-.609.731 0 .366.305.61.61.61.182 0 .365-.061.547-.183.488-.183 1.401-.488 2.315-.488 1.767 0 2.62.732 2.62 2.316v.975c-1.097-.304-1.889-.426-2.864-.426-2.619 0-3.898 1.523-3.898 3.169 0 2.011 1.523 3.291 3.837 3.291 1.95 0 3.473-.67 4.02-1.097.245-.183.305-.305.305-.61v-5.363c-.06-2.377-1.522-3.535-3.898-3.535zm2.438 8.655c-.792.427-1.828.731-2.742.731-1.705 0-2.68-.731-2.68-2.011 0-1.158.853-1.95 2.68-1.95.914 0 1.706.122 2.742.426v2.804zm36.304-29.376c-1.827 0-3.29.67-3.838.975-.487.304-.548.487-.548 1.28V75.82c0 .67.427 1.097 1.036 1.097s1.035-.426 1.035-1.097V73.08c.61.304 1.584.548 2.498.548 2.436 0 4.081-1.584 4.264-3.9.061-.793.061-2.073 0-2.865-.183-2.316-1.828-3.9-4.447-3.9zm2.376 6.46c-.122 1.34-.975 2.194-2.437 2.194-.792 0-1.766-.244-2.254-.61v-5.485c.488-.365 1.462-.61 2.254-.61 1.523 0 2.315.915 2.437 2.195.061.731.061 1.585 0 2.316zm-35.026 2.316l-3.594-3.596 3.411-3.413c.244-.244.427-.549.427-.853 0-.488-.365-.854-.914-.854-.304 0-.548.122-.792.427l-3.533 3.474c-.182.183-.365.305-.67.305h-.73V64.18c0-.67-.427-1.097-1.036-1.097-.61 0-1.036.427-1.036 1.097v8.228c0 .67.427 1.097 1.036 1.097s1.035-.426 1.035-1.097v-3.29h.61c.243 0 .487.121.67.304l3.715 3.718c.305.304.549.426.853.426.548 0 .914-.365.914-.914 0-.366-.122-.61-.366-.914zm46.782-2.072c-.487 0-.731.304-.914.61-.365.791-1.096 1.34-2.193 1.34-1.462 0-2.375-.914-2.497-2.194a13.918 13.918 0 0 1 0-2.255c.122-1.341.975-2.194 2.497-2.194 1.036 0 1.828.548 2.193 1.34.183.305.427.61.914.61.609 0 1.036-.366 1.036-.975 0-.305-.122-.61-.305-.975-.609-1.158-1.949-2.011-3.838-2.011-2.558 0-4.264 1.645-4.507 3.961a21.493 21.493 0 0 0 0 2.804c.243 2.316 1.949 3.961 4.507 3.961 1.889 0 3.229-.914 3.838-2.072.183-.366.305-.67.305-.975-.061-.61-.427-.975-1.036-.975zm-25.157-6.704c-1.158 0-2.193.304-2.863.548-.549.244-.792.548-.792.975 0 .488.365.914.853.914.243 0 .487-.121.791-.183.427-.182 1.158-.365 1.889-.365 1.584 0 2.254.61 2.254 1.828v.853c-.914-.243-1.706-.365-2.559-.365-2.619 0-3.898 1.523-3.898 3.108 0 1.89 1.462 3.352 3.96 3.352 1.948 0 3.471-.67 4.08-1.097.305-.183.366-.365.366-.792v-5.059c.06-2.56-1.462-3.718-4.081-3.718zm2.132 8.35c-.61.304-1.462.548-2.254.548-1.34 0-2.193-.61-2.193-1.585 0-.914.73-1.646 2.193-1.646.792 0 1.462.122 2.314.366v2.316h-.06zm-8.65 17.613l3.96-3.962a.745.745 0 0 0 .243-.548.61.61 0 0 0-.61-.61.744.744 0 0 0-.547.244l-3.899 3.9c-.244.245-.426.366-.73.366h-.67v-3.717c0-.488-.245-.732-.671-.732-.426 0-.67.244-.67.732v9.02c0 .487.244.731.67.731.426 0 .67-.244.67-.731v-4.023h.731c.305 0 .548.122.731.366l4.142 4.144a.744.744 0 0 0 .548.244.61.61 0 0 0 .61-.61c0-.243-.061-.365-.305-.609l-4.203-4.205zm-7.066-5.18c-.426 0-.67.243-.67.73v3.719H68.73v-3.718c0-.488-.244-.732-.67-.732-.427 0-.67.244-.67.732v9.02c0 .487.243.731.67.731.426 0 .67-.244.67-.731v-4.023h5.726v4.023c0 .487.244.731.67.731.426 0 .67-.244.67-.731v-9.02c0-.427-.244-.732-.67-.732z"/><path fill="#009B3A" d="M114.782 121.775l-9.32 1.707c-1.523.304-2.558 1.767-2.315 3.291.305 1.524 1.767 2.56 3.29 2.316l9.319-1.707c2.193-.426 3.594.915 4.142 2.316.549 1.402.427 3.291-1.461 4.51l-13.645 8.899c-1.279.853-2.802.853-4.142.182a4.033 4.033 0 0 1-2.132-3.595v-21.88c0-3.657-1.889-6.826-5.117-8.594-3.167-1.767-6.944-1.584-9.99.366l-34.477 22.367c-3.898 2.499-5.36 7.07-3.655 11.397 1.706 4.328 5.909 6.644 10.477 5.851l30.092-5.424c1.523-.305 2.558-1.767 2.314-3.291-.304-1.524-1.766-2.56-3.289-2.316l-30.091 5.424c-2.254.427-3.594-.914-4.142-2.316-.549-1.402-.427-3.291 1.462-4.51l34.477-22.367c1.279-.854 2.802-.854 4.142-.183a4.033 4.033 0 0 1 2.132 3.596v21.88c0 3.656 1.888 6.826 5.117 8.593 1.462.792 3.106 1.219 4.69 1.219 1.827 0 3.655-.548 5.299-1.585l13.706-8.898c3.898-2.499 5.36-7.07 3.655-11.397-1.767-4.327-5.97-6.704-10.538-5.851zm48.243 5.79c-1.705-4.327-5.908-6.643-10.477-5.851l-9.32 1.707c-1.522.305-2.558 1.767-2.314 3.291.304 1.524 1.766 2.56 3.289 2.316l9.32-1.707c2.193-.426 3.594.915 4.142 2.316.548 1.402.426 3.291-1.462 4.51l-13.645 8.96c-1.279.853-2.802.853-4.142.182a4.033 4.033 0 0 1-2.132-3.595v-28.828a2.86 2.86 0 0 0-2.863-2.865 2.861 2.861 0 0 0-2.863 2.865v28.828c0 3.656 1.889 6.826 5.117 8.593 1.462.792 3.107 1.219 4.69 1.219 1.828 0 3.655-.548 5.3-1.585l13.706-8.898c3.898-2.56 5.36-7.131 3.654-11.458z"/></g></g><defs><filter id="filter0_d" width="216" height="216" x="-4" y="0" color-interpolation-filters="sRGB" filterUnits="userSpaceOnUse"><feFlood flood-opacity="0" result="BackgroundImageFix"/><feColorMatrix in="SourceAlpha" values="0 0 0 0 0 0 0 0 0 0 0 0 0 0 0 0 0 0 127 0"/><feOffset dy="4"/><feGaussianBlur stdDeviation="2"/><feColorMatrix values="0 0 0 0 0 0 0 0 0 0 0 0 0 0 0 0 0 0 0.25 0"/><feBlend in2="BackgroundImageFix" result="effect1_dropShadow"/><feBlend in="SourceGraphic" in2="effect1_dropShadow" result="shape"/></filter><clipPath id="clip0"><path fill="#fff" d="M0 0h120v90.811H0z" transform="translate(44 59)"/></clipPath></defs></svg>
